X:1
T:THE LONELY BEECH
M:2/4
Q:1/4=120
K:C
e2e2e2e2|d4c2c2|B4B4|e2e2g2e2|d2d2c2c2|B4A4|
B6c2|d4c2c2|B4A4|B6c2|d4c2c2|B4A7/2||
